X:1
T:Beautiful Bethlehem Bells
T:Beautiful Bethlehem Bells
T:Charles Edward Pollock
T:Frank Lebby Stanton, 1918
T:Public Domain Courtesy of the Cyber Hymnal™
T:Public Domain Courtesy of the Cyber Hymnal™
C:Charles Edward Pollock
Z:Public Domain
Z:Courtesy of the Cyber Hymnal™
%%score ( 1 2 ) ( 3 4 )
L:1/8
Q:1/4=95
M:6/8
K:Ab
V:1 treble 
V:2 treble 
V:3 bass 
V:4 bass 
V:1
 ([CE]/[CE]/) | [Ec][DB][CA] [A,C][B,D][CE] | [DF]3 [CE]2 ([CE]/[CE]/) | %3
w: 1.~A- *|bove all the roar of the|ci- ties, And *|
w: 2.~Far *|off in a land that is|love- ly, For~the *|
w: 3.~They *|rang o’er the hills and the|val- leys, They *|
w: 4.~For *|they sing of a love that|is death- less, *|
 [EA][EG][EA] [EB][EA][EB] | [Ec]3- [Ec]2 [Ec]/[Ec]/ | [Fd][Fd][Fd] [DF][FA][Fd] | %6
w: o- ver the hills and the|dells, * With a|mes- sage of peace to the|
w: ten- der, sweet sto- ry it|tells, * In the|light of a glo- ri- ous|
w: sum- moned the glad world that|day, * From the|re- gions of night to the|
w: A ~ love that still tri-|umphs * in loss;|They sing of the love that|
 [Ec]3 [CA]2 [Ec]/[Ec]/ | [EB][EG][GB] [FA][EG][=DF] | E3- E2 (E/E/) | [EB][EB][EB] [EG][EA][EB] | %10
w: na- tions, Ring the|beau- ti- ful Beth- le- hem|bells, * Bringing *|joy to the souls that are|
w: morn- ing, Rang the|beau- ti- ful Beth- le- hem|bells; * And *|still in the hearts of cre-|
w: man- ger, Where the|beau- ti- ful Child Je- sus|lay; * And~for- *|ev- er and ev- er and|
w: is lead- ing The|world to the Cal- va- ry|cross. * Ring *|sweet o’er the sound of the|
 [EA]3 [CE]2 [CA] | [Ec][Ec][Ec] [Ec][EB][=DA] | [EB]3- [EB]2 [Ge]/[Ge]/ | %13
w: sigh- ing In|ho- vels where po- ver- ty|dwells— * There is|
w: a- tion An|an- them ex- ult- ing- ly|swells * At that|
w: ev- er A|won- der- ful mel- o- dy|dwells * In the|
w: ci- ties, Ring|sweet o’er the hills and the|dells, * A- nd|
 [Ge][A=d][Ae] [Ec][EA][EA] | [FA]3 [Fd]2 [Fd]/[Fd]/ | [Ec][DB][CA] [EG][EA][EB] | [EA]6 || %17
w: life, there is life for the|dy- ing In the|beau- ti- ful Beth- le- hem|bells.|
w: mem- o- ry sweet of the|ring- ing Of the|beau- ti- ful Beth- le- hem|bells.|
w: ten- der, sweet ring- ing and|sing- ing Of the|beau- ti- ful Beth- le- hem|bells.|
w: touch us with ten- der- est|pi- ties, Oh, the|beau- ti- ful Beth- le- hem|bells.|
"^Refrain" [EB][EG][GB] [FA][EG][=DF] | E3- E2 z | [Ec]3- [Ec][=D=B][Ec] | [Ae]3- [Ae]2 z | %21
w: ||||
w: Beau- ti- ful Beth- le- hem|bells; *|Beau- * ti- ful|bells, *|
w: ||||
w: ||||
 [CA]3- [CA][EB][Ec] | [Fd]3- [Fd]2 z | [Ec][DB][CA] [B,G][CA][DB] | A3- !fermata![CA]2 |] %25
w: ||||
w: Beau- * ti- ful|bells, *|Beau- ti- ful Beth- le- hem|bells. *|
w: ||||
w: ||||
V:2
 x | x6 | x6 | x6 | x6 | x6 | x6 | x6 | E3- E2 E/E/ | x6 | x6 | x6 | x6 | x6 | x6 | x6 | x6 || x6 | %18
 E3- E2 x | x6 | x6 | x6 | x6 | x6 | FED x2 |] %25
V:3
 ([A,,A,]/[A,,A,]/) | [A,,A,][A,,A,][A,,A,] [A,,E,][A,,E,][A,,A,] | %2
w: ~ *|~ ~ ~ ~ ~ ~|
 [A,,A,]3 [A,,A,]2 ([A,,A,]/[A,,A,]/) | [A,,C][B,,B,][C,A,] [E,G,][E,F,][E,G,] | A,3- A,2 A,/A,/ | %5
w: ~ ~ ~ *|~ ~ ~ ~ ~ ~|~ * ~ ~|
 [D,A,][D,A,][D,A,] [D,A,][D,A,][D,A,] | [A,,A,]3 [A,,E,]2 [A,,A,]/[A,,A,]/ | %7
w: ~ ~ ~ ~ ~ ~|~ ~ ~ ~|
 [B,,G,][B,,B,][B,,B,] [B,,B,][B,,B,][B,,B,] | [E,G,]3- [E,G,]2 ([E,G,]/[E,G,]/) | %9
w: ~ ~ ~ ~ ~ ~|~ * ~ *|
 [E,G,][E,G,][E,G,] [E,B,][E,C][E,D] | [A,,C]3 [A,,A,]2 [A,,A,] | A,A,A, A,[G,B,][F,B,] | %12
w: ~ ~ ~ ~ ~ ~|~ ~ ~|~ ~ ~ ~ ~ ~|
 [E,G,]3- [E,G,]2 [E,B,]/[E,B,]/ | [A,C][A,=B,][A,C] A,[C,A,][C,A,] | %14
w: ~ * ~ ~|~ ~ ~ ~ ~ ~|
 [D,A,]3 [D,A,]2 [D,A,]/[D,A,]/ | [E,A,][E,G,][E,A,] [E,B,][E,C][E,D] | [A,,C]6 || %17
w: ~ ~ ~ ~|~ ~ ~ ~ ~ ~|~|
 [B,,G,][B,,B,][B,,B,] [B,,B,][B,,B,][B,,A,] | [E,G,]3- [E,G,]2 z | A,A,A, A,A,A, | %20
w: ~ ~ ~ ~ ~ ~|~ *|Beau- ti- ful, beau- ti- ful,|
 [A,,C][C,C][E,C] [A,C]2 z | [F,A,][F,A,][F,A,] [F,A,][E,G,]A, | [D,A,][D,A,][D,A,] [D,A,]2 z | %23
w: beau- ti- ful bells,|Beau- ti- ful, beau- ti- ful,|beau- ti- ful bells,|
 [E,A,][E,G,][E,A,] [E,B,][E,A,][E,G,] | A,G,F, !fermata![A,,E,]2 |] %25
w: Beau- ti- ful, beau- ti- ful,|Beth- le- hem bells,|
V:4
 x | x6 | x6 | x6 | A,3- A,2 A,/A,/ | x6 | x6 | x6 | x6 | x6 | x6 | A,A,A, A, x2 | x6 | x3 A, x2 | %14
 x6 | x6 | x6 || x6 | x6 | A,A,A, A,A,A, | x6 | x5 A, | x6 | x6 | A,,3- x2 |] %25

